public/images/icons/box_verify.svg

<svg width="35" height="40" viewBox="0 0 35 40" fill="none" xmlns="http://www.w3.org/2000/svg">
<path d="M17.345 5.10498L0.295288 14.9487L17.345 24.7923L34.3948 14.9487L17.345 5.10498Z" fill="#E2E2E2"/>
<path d="M0.295288 14.9487V29.8264L17.345 39.67V24.7924L0.295288 14.9487Z" fill="#C1C1C1"/>
<path d="M17.3451 24.7924V39.67L34.3948 29.8264V14.9487L17.3451 24.7924Z" fill="#A3A3A3"/>
<path d="M17.345 5.10498L0.295288 14.9487L17.345 24.7923L34.3948 14.9487L17.345 5.10498Z" stroke="#636363" stroke-width="0.590621" stroke-linejoin="round"/>
<path d="M0.295288 14.9487V29.8264L17.345 39.67V24.7924L0.295288 14.9487Z" stroke="#636363" stroke-width="0.590621" stroke-linejoin="round"/>
<path d="M17.3451 24.7924V39.67L34.3948 29.8264V14.9487L17.3451 24.7924Z" stroke="#636363" stroke-width="0.590621" stroke-linejoin="round"/>
<path d="M18.0847 11.1265L9.79004 15.9155L14.7354 18.7707H18.4751L24.9001 15.0613L18.0847 11.1265Z" fill="white"/>
<path d="M21.1001 14.967L17.5553 12.9204" stroke="#636363" stroke-width="0.25" stroke-miterlimit="10" stroke-linecap="round"/>
<path d="M19.9242 15.6052L16.3794 13.5586" stroke="#636363" stroke-width="0.25" stroke-miterlimit="10" stroke-linecap="round"/>
<path d="M17.9906 15.8584L15.1464 14.2163" stroke="#636363" stroke-width="0.25" stroke-miterlimit="10" stroke-linecap="round"/>
<path d="M16.6052 17.6914L18.4751 18.771H14.7354L16.6052 17.6914Z" stroke="#636363" stroke-width="0.590621" stroke-linejoin="round"/>
<path d="M18.0847 11.1265L9.79004 15.9155L14.7354 18.7707H18.4751L24.9001 15.0613L18.0847 11.1265Z" stroke="#636363" stroke-width="0.590621" stroke-linejoin="round"/>
<path d="M25.7353 0.856024L23.6431 0.29541L21.3267 8.94009L23.419 9.5007L25.7353 0.856024Z" fill="#A3A3A3"/>
<path d="M25.7353 0.856024L23.6431 0.29541L21.3267 8.94009L23.419 9.5007L25.7353 0.856024Z" stroke="#636363" stroke-width="0.590621" stroke-linejoin="round"/>
<path d="M21.7042 11.7153L21.3267 8.93994L23.4189 9.50056L21.7042 11.7153Z" fill="#C1C1C1"/>
<path d="M21.7042 11.7153L21.3267 8.93994L23.4189 9.50056L21.7042 11.7153Z" stroke="#636363" stroke-width="0.590621" stroke-linejoin="round"/>
<g style="mix-blend-mode:overlay">
<path d="M34.5425 14.6934L23.9692 8.58893L26.02 0.932617C26.062 0.775391 25.9692 0.613281 25.811 0.571289L23.7192 0.0107422C23.646 -0.00878904 23.563 0.000976559 23.4956 0.0400391C23.4272 0.0791016 23.3784 0.143555 23.3579 0.219727L21.4976 7.16193L17.4927 4.84961C17.4009 4.79688 17.2896 4.79688 17.1978 4.84961L0.147949 14.6934C0.0561523 14.7461 0.000488281 14.8438 0.000488281 14.9492V29.8262C0.000488281 29.9316 0.0561524 30.0293 0.147949 30.082L17.1978 39.9258C17.2437 39.9521 17.2944 39.9648 17.3452 39.9648C17.396 39.9648 17.4468 39.9521 17.4927 39.9258L34.5425 30.082C34.6343 30.0293 34.6899 29.9316 34.6899 29.8262V14.9492C34.6899 14.8438 34.6343 14.7461 34.5425 14.6934Z" fill="#2AE864"/>
</g>
</svg>

<svg xmlns="http://www.w3.org/2000/svg" width="35" height="40" fill="none"><path fill="#E2E2E2" d="M17.345 5.105.295 14.949l17.05 9.843 17.05-9.843-17.05-9.844Z"/><path fill="#C1C1C1" d="M.295 14.949v14.877l17.05 9.844V24.792L.295 14.95Z"/><path fill="#A3A3A3" d="M17.345 24.792V39.67l17.05-9.844V14.95l-17.05 9.843Z"/><path stroke="#636363" stroke-linejoin="round" stroke-width=".591" d="M17.345 5.105.295 14.949l17.05 9.843 17.05-9.843-17.05-9.844Z"/><path stroke="#636363" stroke-linejoin="round" stroke-width=".591" d="M.295 14.949v14.877l17.05 9.844V24.792L.295 14.95Z"/><path stroke="#636363" stroke-linejoin="round" stroke-width=".591" d="M17.345 24.792V39.67l17.05-9.844V14.95l-17.05 9.843Z"/><path fill="#fff" d="M18.085 11.127 9.79 15.915l4.945 2.856h3.74l6.425-3.71-6.815-3.934Z"/><path stroke="#636363" stroke-linecap="round" stroke-miterlimit="10" stroke-width=".25" d="m21.1 14.967-3.545-2.047M19.924 15.605 16.38 13.56M17.99 15.858l-2.844-1.642"/><path stroke="#636363" stroke-linejoin="round" stroke-width=".591" d="m16.605 17.691 1.87 1.08h-3.74l1.87-1.08Z"/><path stroke="#636363" stroke-linejoin="round" stroke-width=".591" d="M18.085 11.127 9.79 15.915l4.945 2.856h3.74l6.425-3.71-6.815-3.934Z"/><path fill="#A3A3A3" d="m25.735.856-2.092-.56-2.316 8.644 2.092.56L25.735.857Z"/><path stroke="#636363" stroke-linejoin="round" stroke-width=".591" d="m25.735.856-2.092-.56-2.316 8.644 2.092.56L25.735.857Z"/><path fill="#C1C1C1" d="m21.704 11.715-.377-2.775 2.092.56-1.715 2.215Z"/><path stroke="#636363" stroke-linejoin="round" stroke-width=".591" d="m21.704 11.715-.377-2.775 2.092.56-1.715 2.215Z"/><path fill="#2AE864" d="M34.542 14.693 23.97 8.59 26.02.933a.295.295 0 0 0-.209-.362l-2.092-.56a.293.293 0 0 0-.361.209l-1.86 6.942-4.005-2.312a.295.295 0 0 0-.295 0L.148 14.693A.294.294 0 0 0 0 14.95v14.877c0 .106.056.203.148.256l17.05 9.844a.295.295 0 0 0 .295 0l17.05-9.844a.294.294 0 0 0 .147-.256V14.95a.294.294 0 0 0-.148-.256Z" style="mix-blend-mode:overlay"/></svg>
